X: 1
T:Piper's Despair
M:C
L:1/8
Q:80
C:John Walsh
S:Reel
K:HP
[| {g}Bcde{gfg}f{g}ef{g}f|
{e}f2{g}efaf{g}ec|
{g}A{d}A{e}A{d}c{g}eA{gAGAG}A2|  !
{g}((3fga)efaf{g}ec|
{g}Bcde{gfg}f{g}ef{g}f|
{e}f2{g}efaf{g}ec|  !
{g}A{d}A{e}A{d}c{g}eA{gAGAG}A2|
{g}((3fga)ec{g}fB{gBeBG}B2|] [|
{gfg}f2{g}ef{g}feae|  !
{g}faea{g}af{g}ec|
{g}A{d}A{e}A{d}c{g}eA{gAGAG}A2|
{g}((3fga)efaf{g}ec|  !
{gfg}f2{g}ef{g}feae|
{g}faea{g}af{g}ec|
{g}A{d}A{e}A{d}c{g}eA{gAGAG}A2|  !
{g}((3fga)ec{g}fB{gBeBG}B2|]
